azure-icons/command-1051-Query.svg

<svg xmlns="http://www.w3.org/2000/svg" viewBox="0 0 16 16"><path d="M16 0v11h-4v-1h3V3H4v2H3V0zM4 2h11V1H4z"/><path d="M0 5v11h13V5zm12 2H1V6h11zM1 15V8h11v7z"/></svg>

<svg xmlns="http://www.w3.org/2000/svg" viewBox="0 0 16 16"><title>Asset 55</title><path d="M16,0V11H12V10h3V3H4V5H3V0ZM4,2H15V1H4Z"/><path d="M0,5V16H13V5ZM12,7H1V6H12ZM1,15V8H12v7Z"/></svg>
